;generated by ttglib: Ryan Zmuda 2021
G1 F1000
G21
G90
G0Z0
G1 X0 Y0
G1 X0 Y7
G1 X1 Y8
G1 X2 Y9
G1 X3 Y9
G1 X4 Y8
G1 X5 Y7
G1 X5 Y0
G0Z20
G1 X5 Y4
G0Z0
G1 X0 Y4
G0Z20
G1 X20 Y0
G0Z0
G1 X20 Y0
G1 X20 Y9
G1 X23 Y9
G1 X24 Y8
G1 X25 Y7
G1 X25 Y6
G1 X24 Y5
G1 X23 Y4
G1 X20 Y4
G0Z20
G1 X23 Y4
G0Z0
G1 X24 Y3
G1 X25 Y2
G1 X25 Y1
G1 X24 Y0
G1 X20 Y0
G0Z20
G1 X40 Y0
G0Z20
G1 X45 Y1
G0Z0
G1 X44 Y0
G1 X41 Y0
G1 X40 Y1
G1 X40 Y8
G1 X41 Y9
G1 X44 Y9
G1 X45 Y8
G0Z20
G1 X60 Y0
G0Z0
G1 X60 Y9
G1 X63 Y9
G1 X64 Y8
G1 X65 Y7
G1 X65 Y2
G1 X64 Y1
G1 X63 Y0
G1 X60 Y0
G1 X60 Y9
G0Z20
G1 X80 Y0
G0Z0
G1 X80 Y9
G1 X85 Y9
G0Z20
G1 X85 Y5
G0Z0
G1 X80 Y5
G0Z20
G1 X85 Y0
G0Z0
G1 X80 Y0
G1 X80 Y9
G0Z20
G1 X100 Y0
G0Z0
G1 X100 Y9
G1 X105 Y9
G0Z20
G1 X105 Y5
G0Z0
G1 X100 Y5
G0Z20
G1 X100 Y0
G0Z0
G1 X100 Y9
G0Z20
G0Z20
G1 X125 Y8
G0Z0
G1 X124 Y9
G1 X121 Y9
G1 X120 Y8
G1 X120 Y1
G1 X121 Y0
G1 X124 Y0
G1 X125 Y1
G1 X125 Y4
G1 X124 Y4
G0Z20
G1 X140 Y0
G0Z0
G1 X140 Y9
G0Z20
G1 X145 Y9
G0Z0
G1 X145 Y0
G0Z20
G1 X140 Y5
G0Z0
G1 X145 Y5
G0Z20
G1 X160 Y0
G0Z0
G1 X164 Y0
G0Z20
G1 X164 Y9
G0Z0
G1 X160 Y9
G0Z20
G1 X162 Y9
G0Z0
G1 X162 Y0
G0Z20
G1 X179 Y0
G0Z0
G1 X180 Y0
G1 X181 Y1
G1 X181 Y9
G1 X179 Y9
G0Z20
G1 X181 Y9
G0Z0
G1 X183 Y9
G0Z20
G1 X198 Y0
G0Z0
G1 X198 Y9
G0Z20
G1 X203 Y9
G0Z0
G1 X203 Y7
G1 X202 Y6
G1 X201 Y5
G1 X200 Y4
G1 X199 Y4
G1 X198 Y4
G1 X200 Y4
G1 X201 Y3
G1 X202 Y2
G1 X203 Y1
G1 X203 Y0
G0Z20
G1 X218 Y9
G0Z0
G1 X218 Y0
G1 X223 Y0
G0Z20
G1 X238 Y0
G0Z0
G1 X238 Y9
G1 X239 Y8
G1 X240 Y7
G1 X241 Y6
G1 X241 Y5
G1 X241 Y6
G1 X242 Y7
G1 X243 Y8
G1 X244 Y9
G1 X244 Y0
G0Z20
G1 X258 Y0
G0Z0
G1 X258 Y9
G1 X263 Y0
G1 X263 Y9
G0Z20
G1 X278 Y1
G0Z0
G1 X278 Y8
G1 X279 Y9
G1 X282 Y9
G1 X283 Y8
G1 X283 Y1
G1 X282 Y0
G1 X279 Y0
G1 X278 Y1
G0Z20
G1 X298 Y0
G0Z0
G1 X298 Y8
G1 X299 Y9
G1 X302 Y9
G1 X303 Y8
G1 X303 Y5
G1 X302 Y4
G1 X298 Y4
G0Z20
G1 X318 Y1
G0Z0
G1 X318 Y8
G1 X319 Y9
G1 X322 Y9
G1 X323 Y8
G1 X323 Y2
G1 X322 Y1
G1 X323 Y0
G0Z20
G1 X322 Y1
G0Z0
G1 X322 Y1
G1 X321 Y0
G1 X319 Y0
G1 X318 Y1
G0Z20
G1 X338 Y0
G0Z0
G1 X338 Y8
G1 X339 Y9
G1 X341 Y9
G1 X342 Y8
G1 X343 Y7
G1 X343 Y6
G1 X342 Y5
G1 X341 Y4
G1 X338 Y4
G0Z20
G1 X341 Y4
G0Z0
G1 X342 Y3
G1 X343 Y2
G1 X343 Y0
G0Z20
G1 X358 Y0
G0Z0
G1 X362 Y0
G1 X363 Y1
G1 X363 Y3
G1 X362 Y4
G1 X359 Y4
G1 X358 Y5
G1 X358 Y8
G1 X359 Y9
G1 X363 Y9
G0Z20
G1 X380 Y0
G0Z0
G1 X380 Y9
G0Z20
G1 X378 Y9
G0Z0
G1 X382 Y9
G0Z20
G1 X397 Y9
G0Z0
G1 X397 Y1
G1 X398 Y0
G1 X401 Y0
G1 X402 Y1
G1 X402 Y9
G0Z20
G1 X417 Y9
G0Z0
G1 X419 Y0
G1 X421 Y9
G0Z20
G1 X436 Y9
G0Z0
G1 X437 Y0
G1 X438 Y9
G1 X439 Y0
G1 X440 Y9
G1 X441 Y0
G1 X442 Y9
G0Z20
G1 X457 Y0
G0Z0
G1 X461 Y9
G0Z20
G1 X457 Y9
G0Z0
G1 X461 Y0
G0Z20
G1 X478 Y0
G0Z0
G1 X478 Y4
G1 X476 Y6
G1 X476 Y9
G0Z20
G1 X480 Y9
G0Z0
G1 X480 Y6
G1 X478 Y4
G0Z20
G1 X495 Y9
G0Z0
G1 X500 Y9
G1 X495 Y0
G1 X500 Y0
G0Z20
G1 X517 Y0
G0Z0
G1 X517 Y9
G0Z20
G1 X538 Y0
G0Z0
G1 X534 Y0
G1 X538 Y8
G1 X536 Y9
G1 X534 Y8
G0Z20
G1 X553 Y1
G0Z0
G1 X555 Y0
G1 X557 Y1
G1 X557 Y3
G1 X556 Y4
G1 X553 Y4
G0Z20
G1 X556 Y4
G0Z0
G1 X557 Y5
G1 X557 Y8
G1 X555 Y9
G1 X553 Y8
G0Z20
G1 X572 Y9
G0Z0
G1 X572 Y5
G1 X576 Y5
G0Z20
G1 X576 Y9
G0Z0
G1 X576 Y0
G0Z20
G1 X595 Y9
G0Z0
G1 X591 Y9
G1 X591 Y5
G1 X593 Y5
G1 X595 Y3
G1 X595 Y1
G1 X594 Y0
G1 X591 Y0
G0Z20
G1 X614 Y9
G0Z0
G1 X612 Y9
G1 X610 Y7
G1 X610 Y1
G1 X611 Y0
G1 X613 Y0
G1 X614 Y2
G1 X614 Y3
G1 X612 Y5
G1 X610 Y4
G0Z20
G1 X629 Y0
G0Z0
G1 X633 Y9
G1 X629 Y9
G0Z20
G1 X650 Y0
G0Z0
G1 X651 Y0
G1 X652 Y1
G1 X652 Y4
G1 X651 Y5
G1 X649 Y5
G1 X648 Y6
G1 X648 Y8
G1 X649 Y9
G1 X651 Y9
G1 X652 Y8
G1 X652 Y6
G1 X651 Y5
G1 X649 Y5
G1 X648 Y4
G1 X648 Y1
G1 X649 Y0
G1 X651 Y0
G0Z20
G1 X671 Y0
G0Z0
G1 X671 Y7
G1 X670 Y9
G1 X668 Y9
G1 X667 Y7
G1 X668 Y4
G1 X671 Y4
G0Z20
G1 X686 Y1
G0Z0
G1 X686 Y8
G1 X687 Y9
G1 X689 Y9
G1 X690 Y8
G1 X690 Y1
G1 X689 Y0
G1 X687 Y0
G1 X686 Y1
G0Z20
